build/images/brand.svg

<svg width="357px" height="348px" viewBox="36 1236 357 348" version="1.1" xmlns="http://www.w3.org/2000/svg" xmlns:xlink="http://www.w3.org/1999/xlink">
    <!-- Generator: Sketch 3.8.3 (29802) - http://www.bohemiancoding.com/sketch -->
    <desc>Created with Sketch.</desc>
    <defs>
        <path d="M14.6168101,41.6115638 C15.5353876,28.3840468 20.1282755,18.1429276 28.3954736,10.8851442 C36.6626717,3.62838139 48.236749,4.12114787e-13 63.1177056,4.12114787e-13 C72.4871968,4.12114787e-13 79.9266545,1.24007972 85.4391405,3.72023915 C90.9506059,6.20039858 95.1301339,9.36949119 97.9777243,13.227517 C100.825315,17.0855428 102.616541,21.3109996 103.352424,25.9038874 C104.085245,30.4967752 104.453696,34.9059476 104.453696,39.1314044 C104.453696,44.4591543 103.397332,48.5478451 101.284604,51.3954356 C99.1718752,54.2420054 95.8639753,56.3547338 91.3629452,57.7336208 C86.8619151,59.1104665 81.1208053,60.0300647 74.1396158,60.4883328 C67.1594469,60.9476216 58.8003911,61.4528393 49.0634688,62.0039858 C43.1845724,62.3724375 37.305676,63.1522078 31.4267795,64.3463586 C25.5478831,65.5405095 20.311991,67.6532379 15.7191031,70.6845438 C11.1262153,73.7158498 7.40597615,77.8953777 4.55838569,83.2231276 C1.71079523,88.5508775 0.287,95.6249454 0.287,104.442269 C0.287,117.11864 4.60431457,126.626938 13.2389437,132.965124 C21.8735728,139.302288 33.3557924,142.471381 47.6856025,142.471381 C55.034223,142.471381 61.831697,141.506874 68.0780245,139.577861 C74.324352,137.648849 79.8807256,135.030902 84.7502073,131.724023 C89.6186685,128.417144 93.6593891,124.650976 96.8754312,120.425519 C100.090453,116.200062 102.98499,111.791909 104.453694,107.199021 L104.453696,128.723336 C104.453696,134.050066 105.969349,137.679468 109.000655,139.608481 C112.03094,141.536473 115.567464,142.502 119.610226,142.502 L127.877424,142.502 M104.453694,107.199021 L104.453694,38.1107628" id="path-1"></path>
        <path d="M2.066,2.14 C0.309,3.897 0.309,6.747 2.066,8.505 C3.824,10.262 6.674,10.262 8.431,8.505 C10.188,6.747 10.188,3.897 8.431,2.14 C7.553,1.262 6.401,0.822 5.249,0.822 C4.097,0.822 2.945,1.262 2.066,2.14 L2.066,2.14 Z" id="path-3"></path>
    </defs>
    <g id="Brand/Identity" stroke="none" stroke-width="1" fill="none" fill-rule="evenodd" transform="translate(38.000000, 1238.000000)">
        <g id="Page-1">
            <path d="M178.6496,335.981 C132.5226,334.899 91.3266,315.961 59.0196,282.652 C26.6646,249.293 8.8456,206.217 8.8456,159.542" id="Fill-1" stroke="#F1494C" stroke-width="3"></path>
            <g id="Group-11" transform="translate(29.000000, 0.000000)" stroke="#ececec" stroke-width="3">
                <path d="M10.5,86.5 L19.6800003,86.5" id="Line" stroke-linecap="square"></path>
                <path d="M29.5,86.5 L38.6800003,86.5" id="Line" stroke-linecap="square"></path>
                <path d="M48.5,86.5 L57.6800003,86.5" id="Line" stroke-linecap="square"></path>
                <path d="M66.5,86.5 L75.6800003,86.5" id="Line" stroke-linecap="square"></path>
                <path d="M85.5,86.5 L95.6800003,86.5" id="Line" stroke-linecap="square"></path>
                <path d="M104.5,86.5 L114.68,86.5" id="Line" stroke-linecap="square"></path>
                <path d="M123.5,86.5 L133.68,86.5" id="Line" stroke-linecap="square"></path>
                <path d="M142.5,86.5 L152.68,86.5" id="Line" stroke-linecap="square"></path>
                <path d="M162.5,86.5 L172.68,86.5" id="Line" stroke-linecap="square"></path>
                <path d="M179.5,86.5 L190.68,86.5" id="Line" stroke-linecap="square"></path>
                <path d="M199.5,86.5 L210.68,86.5" id="Line" stroke-linecap="square"></path>
                <path d="M217.5,86.5 L228.68,86.5" id="Line" stroke-linecap="square"></path>
                <path d="M236.5,86.5 L247.68,86.5" id="Line" stroke-linecap="square"></path>
                <path d="M255.5,86.5 L266.68,86.5" id="Line" stroke-linecap="square"></path>
                <path d="M274.5,86.5 L285.68,86.5" id="Line" stroke-linecap="square"></path>
                <path d="M293.5,86.5 L304.68,86.5" id="Line" stroke-linecap="square"></path>
                <path d="M312.5,86.5 L323.68,86.5" id="Line" stroke-linecap="square"></path>
                <path d="M11,229 L20.1800003,229" id="Line" stroke-linecap="square"></path>
                <path d="M30,229 L39.1800003,229" id="Line" stroke-linecap="square"></path>
                <path d="M49,229 L58.1800003,229" id="Line" stroke-linecap="square"></path>
                <path d="M67,229 L76.1800003,229" id="Line" stroke-linecap="square"></path>
                <path d="M86,229 L96.1800003,229" id="Line" stroke-linecap="square"></path>
                <path d="M105,229 L115.18,229" id="Line" stroke-linecap="square"></path>
                <path d="M124,229 L134.18,229" id="Line" stroke-linecap="square"></path>
                <path d="M143,229 L153.18,229" id="Line" stroke-linecap="square"></path>
                <path d="M163,229 L173.18,229" id="Line" stroke-linecap="square"></path>
                <path d="M180,229 L191.18,229" id="Line" stroke-linecap="square"></path>
                <path d="M200,229 L211.18,229" id="Line" stroke-linecap="square"></path>
                <path d="M218,229 L229.18,229" id="Line" stroke-linecap="square"></path>
                <path d="M237,229 L248.18,229" id="Line" stroke-linecap="square"></path>
                <path d="M256,229 L267.18,229" id="Line" stroke-linecap="square"></path>
                <path d="M275,229 L286.18,229" id="Line" stroke-linecap="square"></path>
                <path d="M294,229 L305.18,229" id="Line" stroke-linecap="square"></path>
                <path d="M313,229 L324.18,229" id="Line" stroke-linecap="square"></path>
                <circle id="Oval-30" cx="155.5" cy="155.5" r="155.5"></circle>
            </g>
            <g id="Group-14" transform="translate(126.000000, 86.000000)">
                <mask id="mask-2" fill="white">
                    <use xlink:href="#path-1"></use>
                </mask>
                <use id="Clip-13" stroke="#afafaf" stroke-width="3" xlink:href="#path-1"></use>
            </g>
            <path d="M186.5,61.5 L261.506668,136.506668" id="Line" stroke="#F1494C" stroke-width="3" stroke-linecap="square"></path>
            <g id="Group-19" transform="translate(218.000000, 93.000000)">
                <mask id="mask-4" fill="white">
                    <use xlink:href="#path-3"></use>
                </mask>
                <g id="Clip-18"></g>
                <polygon id="Fill-17" fill="#FFFFFF" mask="url(#mask-4)" points="5.249 -8.1123 18.684 5.3227 5.249 18.7577 -8.186 5.3227"></polygon>
            </g>
            <circle id="Oval-31" stroke="#F1494C" stroke-width="3" fill="#FFFFFF" cx="186" cy="61" r="6"></circle>
            <circle id="Oval-31" stroke="#F1494C" stroke-width="3" fill="#FFFFFF" cx="224" cy="99" r="6"></circle>
            <circle id="Oval-31" stroke="#F1494C" stroke-width="3" fill="#FFFFFF" cx="259" cy="133" r="6"></circle>
            <g id="Group-35" transform="translate(0.000000, 158.000000)" stroke="#F1494C" stroke-width="3" stroke-linecap="square">
                <path d="M0.5,1.5 L17.7626762,1.5" id="Line"></path>
                <path d="M179.5,169.5 L179.5,185.75" id="Line"></path>
            </g>
        </g>
    </g>
</svg>

<svg width="357" height="348" viewBox="36 1236 357 348" xmlns="http://www.w3.org/2000/svg" xmlns:xlink="http://www.w3.org/1999/xlink"><defs><path d="M14.617 41.612c.918-13.228 5.511-23.47 13.778-30.727C36.663 3.628 48.237 0 63.118 0c9.37 0 16.809 1.24 22.321 3.72 5.512 2.48 9.691 5.65 12.539 9.508 2.847 3.858 4.639 8.083 5.374 12.676.733 4.593 1.102 9.002 1.102 13.227 0 5.328-1.057 9.417-3.17 12.264-2.112 2.847-5.42 4.96-9.921 6.339-4.501 1.376-10.242 2.296-17.223 2.754-6.98.46-15.34.965-25.077 1.516a129.06 129.06 0 0 0-17.636 2.342c-5.88 1.195-11.115 3.307-15.708 6.339-4.593 3.03-8.313 7.21-11.16 12.538C1.71 88.551.286 95.625.286 104.443c0 12.676 4.317 22.184 12.952 28.522 8.635 6.337 20.117 9.506 34.447 9.506 7.348 0 14.146-.964 20.392-2.893 6.246-1.93 11.803-4.547 16.672-7.854 4.869-3.307 8.91-7.073 12.125-11.298 3.215-4.226 6.11-8.634 7.579-13.227v21.524c0 5.327 1.515 8.956 4.547 10.885 3.03 1.928 6.566 2.894 10.61 2.894h8.266m-23.423-35.303V38.111" id="a"/><path d="M2.066 2.14a4.502 4.502 0 0 0 6.365 6.365A4.502 4.502 0 0 0 2.066 2.14z" id="b"/></defs><g transform="translate(38 1238)" fill="none" fill-rule="evenodd"><path d="M178.65 335.981c-46.127-1.082-87.323-20.02-119.63-53.329-32.355-33.359-50.174-76.435-50.174-123.11" stroke="#F1494C" stroke-width="3"/><g transform="translate(29)" stroke="#ececec" stroke-width="3"><path d="M10.5 86.5h9.18m9.82 0h9.18m9.82 0h9.18m8.82 0h9.18m9.82 0h10.18m8.82 0h10.18m8.82 0h10.18m8.82 0h10.18m9.82 0h10.18m6.82 0h11.18m8.82 0h11.18m6.82 0h11.18m7.82 0h11.18m7.82 0h11.18m7.82 0h11.18m7.82 0h11.18m7.82 0h11.18M11 229h9.18m9.82 0h9.18m9.82 0h9.18m8.82 0h9.18m9.82 0h10.18m8.82 0h10.18m8.82 0h10.18m8.82 0h10.18m9.82 0h10.18m6.82 0h11.18m8.82 0h11.18m6.82 0h11.18m7.82 0h11.18m7.82 0h11.18m7.82 0h11.18m7.82 0h11.18m7.82 0h11.18" stroke-linecap="square"/><circle cx="155.5" cy="155.5" r="155.5"/></g><use stroke="#afafaf" stroke-width="3" xlink:href="#a" transform="translate(126 86)"/><path d="M186.5 61.5l75.007 75.007" stroke="#F1494C" stroke-width="3" stroke-linecap="square"/><g transform="translate(218 93)"><mask id="c" fill="#fff"><use xlink:href="#b"/></mask><path fill="#FFF" mask="url(#c)" d="M5.249-8.112L18.684 5.323 5.249 18.758-8.186 5.323z"/></g><circle stroke="#F1494C" stroke-width="3" fill="#FFF" cx="186" cy="61" r="6"/><circle stroke="#F1494C" stroke-width="3" fill="#FFF" cx="224" cy="99" r="6"/><circle stroke="#F1494C" stroke-width="3" fill="#FFF" cx="259" cy="133" r="6"/><path d="M.5 159.5h17.263m161.737 168v16.25" stroke="#F1494C" stroke-width="3" stroke-linecap="square"/></g></svg>
